icon-svg/ikea-blind-open.svg

<svg xmlns="http://www.w3.org/2000/svg" fill="#44739e" viewBox="0 0 24 24"><path d="M2.4 3.357a.151.151 0 1 1-.134-.134.151.151 0 0 1 .134.134m0-.664a.151.151 0 0 1-.3 0 .151.151 0 0 1 .3 0m3.649.849H3.114v-.178h-.192v-.6h.2v-.147h2.922ZM1.773 2.215v1.848l.021 2.29a3.2 3.2 0 0 0 .071.7h.256q.073-1.493.041-2.993v-.029H21.9q-.033 1.514.041 3.025h.259a3.2 3.2 0 0 0 .071-.7l.021-2.437v-1.7zm4.463 1.518H2.76V2.456h3.476ZM21.8 8.136h-.27v-.13h-19v.13h-.27c-.16 0-.16-.72.01-.72h.26v.13h19v-.13h.26c.17 0 .17.72.01.72M2.54 4.576h18.95v2.593H2.54Z"/></svg>

<?xml version="1.0" encoding="UTF-8"?>
<svg width="24px" fill="#44739e" height="24px" viewBox="0 0 24 24" version="1.1" xmlns="http://www.w3.org/2000/svg" xmlns:xlink="http://www.w3.org/1999/xlink">
            <path d="M 2.4,3.357 A 0.151,0.151 0 1 1 2.266,3.223 0.151,0.151 0 0 1 2.4,3.357 Z m 0,-0.664 a 0.151,0.151 0 0 1 -0.3,0 0.151,0.151 0 0 1 0.3,0 z M 6.049,3.542 H 3.114 V 3.364 H 2.922 v -0.6 h 0.2 V 2.617 H 6.044 Z M 1.773,2.215 v 1.848 l 0.021,2.29 a 3.207,3.207 0 0 0 0.071,0.7 H 2.121 Q 2.194,5.56 2.162,4.06 V 4.031 H 21.9 q -0.033,1.514 0.041,3.025 H 22.2 a 3.207,3.207 0 0 0 0.071,-0.7 l 0.021,-2.437 v -1.7 z M 6.236,3.733 H 2.76 V 2.456 H 6.236 Z M 21.8,8.136 h -0.27 v -0.13 h -19 v 0.13 H 2.26 c -0.16,0 -0.16,-0.72 0.01,-0.72 h 0.26 v 0.13 h 19 v -0.13 h 0.26 c 0.17,0 0.17,0.72 0.01,0.72 z M 2.54,4.576 H 21.49 V 7.169 H 2.54 Z"/>

</svg>
